( Made using CamBam - http://www.cambam.co.uk )
( AIR_LCDuinoBezel 11/10/2015 4:47:11 PM )
( T8 : 0.09 )
G20 G90 G64 G40
G0 Z0.3
( T8 : 0.09 )
T8 M6
( Drill6 )
G17
M3 S1000
G0 X1.5 Y1.5
G98
G83 X1.5 Y1.5 Z-0.1 Q0.1 R0.0 F15.0
G80
( Pocket1 )
S1000
G0 Z-0.125
G1 F10.0 X1.479 Y1.521
G1 F20.0 X1.521
G1 Y1.479
G1 X1.479
G1 Y1.521
G1 F10.0 X1.425
G1 F20.0 Y1.575
G1 X1.575
G1 Y1.425
G1 X1.425
G1 Y1.521
G1 F10.0 X1.371
G1 F20.0 Y1.629
G1 X1.629
G1 Y1.371
G1 X1.371
G1 Y1.521
G1 F10.0 X1.317
G1 F20.0 Y1.683
G1 X1.683
G1 Y1.317
G1 X1.317
G1 Y1.521
G1 F10.0 X1.263
G1 F20.0 Y1.737
G1 X1.737
G1 Y1.263
G1 X1.263
G1 Y1.521
G1 F10.0 X1.209
G1 F20.0 Y1.791
G1 X1.791
G1 Y1.209
G1 X1.209
G1 Y1.521
G1 F10.0 X1.155
G1 F20.0 Y1.845
G1 X1.845
G1 Y1.155
G1 X1.155
G1 Y1.521
G1 F10.0 X1.101
G1 F20.0 Y1.899
G1 X1.899
G1 Y1.101
G1 X1.101
G1 Y1.521
G1 F10.0 X1.047
G1 F20.0 Y1.953
G1 X1.953
G1 Y1.047
G1 X1.047
G1 Y1.521
G1 F10.0 X0.993
G1 F20.0 Y2.007
G1 X2.007
G1 Y0.993
G1 X0.993
G1 Y1.521
G1 F10.0 X0.939
G1 F20.0 Y2.061
G1 X2.061
G1 Y0.939
G1 X0.939
G1 Y1.521
G1 F10.0 X0.885
G1 F20.0 Y2.115
G1 X2.115
G1 Y0.885
G1 X0.885
G1 Y1.521
G1 F10.0 X0.831
G1 F20.0 Y2.169
G1 X2.169
G1 Y0.831
G1 X0.831
G1 Y1.521
G1 F10.0 X0.777
G1 F20.0 Y2.223
G1 X2.223
G1 Y0.777
G1 X0.777
G1 Y1.521
G1 F10.0 X0.723
G1 F20.0 Y2.277
G1 X2.277
G1 Y0.723
G1 X0.723
G1 Y1.521
G1 F10.0 X0.669
G1 F20.0 Y2.331
G1 X2.331
G1 Y0.669
G1 X0.669
G1 Y1.521
G1 F10.0 X0.615
G1 F20.0 Y2.385
G1 X2.385
G1 Y0.615
G1 X0.615
G1 Y1.521
G1 F10.0 X0.561
G1 F20.0 Y2.439
G1 X2.439
G1 Y0.561
G1 X0.561
G1 Y1.521
G1 F10.0 X0.507
G1 F20.0 Y2.493
G1 X2.493
G1 Y0.507
G1 X0.507
G1 Y1.521
G1 F10.0 X0.453
G1 F20.0 Y2.547
G1 X2.547
G1 Y0.453
G1 X0.453
G1 Y1.521
G1 F10.0 X0.399
G1 F20.0 Y2.601
G1 X2.601
G1 Y0.399
G1 X0.399
G1 Y1.521
G1 F10.0 X0.345
G1 F20.0 Y2.655
G1 X2.655
G1 Y0.345
G1 X0.345
G1 Y1.521
G0 Z0.5
G0 X1.479
G1 F10.0 Z-0.2
G1 F20.0 X1.521
G1 Y1.479
G1 X1.479
G1 Y1.521
G1 F10.0 X1.425
G1 F20.0 Y1.575
G1 X1.575
G1 Y1.425
G1 X1.425
G1 Y1.521
G1 F10.0 X1.371
G1 F20.0 Y1.629
G1 X1.629
G1 Y1.371
G1 X1.371
G1 Y1.521
G1 F10.0 X1.317
G1 F20.0 Y1.683
G1 X1.683
G1 Y1.317
G1 X1.317
G1 Y1.521
G1 F10.0 X1.263
G1 F20.0 Y1.737
G1 X1.737
G1 Y1.263
G1 X1.263
G1 Y1.521
G1 F10.0 X1.209
G1 F20.0 Y1.791
G1 X1.791
G1 Y1.209
G1 X1.209
G1 Y1.521
G1 F10.0 X1.155
G1 F20.0 Y1.845
G1 X1.845
G1 Y1.155
G1 X1.155
G1 Y1.521
G1 F10.0 X1.101
G1 F20.0 Y1.899
G1 X1.899
G1 Y1.101
G1 X1.101
G1 Y1.521
G1 F10.0 X1.047
G1 F20.0 Y1.953
G1 X1.953
G1 Y1.047
G1 X1.047
G1 Y1.521
G1 F10.0 X0.993
G1 F20.0 Y2.007
G1 X2.007
G1 Y0.993
G1 X0.993
G1 Y1.521
G1 F10.0 X0.939
G1 F20.0 Y2.061
G1 X2.061
G1 Y0.939
G1 X0.939
G1 Y1.521
G1 F10.0 X0.885
G1 F20.0 Y2.115
G1 X2.115
G1 Y0.885
G1 X0.885
G1 Y1.521
G1 F10.0 X0.831
G1 F20.0 Y2.169
G1 X2.169
G1 Y0.831
G1 X0.831
G1 Y1.521
G1 F10.0 X0.777
G1 F20.0 Y2.223
G1 X2.223
G1 Y0.777
G1 X0.777
G1 Y1.521
G1 F10.0 X0.723
G1 F20.0 Y2.277
G1 X2.277
G1 Y0.723
G1 X0.723
G1 Y1.521
G1 F10.0 X0.669
G1 F20.0 Y2.331
G1 X2.331
G1 Y0.669
G1 X0.669
G1 Y1.521
G1 F10.0 X0.615
G1 F20.0 Y2.385
G1 X2.385
G1 Y0.615
G1 X0.615
G1 Y1.521
G1 F10.0 X0.561
G1 F20.0 Y2.439
G1 X2.439
G1 Y0.561
G1 X0.561
G1 Y1.521
G1 F10.0 X0.507
G1 F20.0 Y2.493
G1 X2.493
G1 Y0.507
G1 X0.507
G1 Y1.521
G1 F10.0 X0.453
G1 F20.0 Y2.547
G1 X2.547
G1 Y0.453
G1 X0.453
G1 Y1.521
G1 F10.0 X0.399
G1 F20.0 Y2.601
G1 X2.601
G1 Y0.399
G1 X0.399
G1 Y1.521
G1 F10.0 X0.345
G1 F20.0 Y2.655
G1 X2.655
G1 Y0.345
G1 X0.345
G1 Y1.521
( Pocket2 )
S1000
G0 Z0.5
G0 X1.417 Y1.4545
G1 F10.0 Z-0.325
G3 F20.0 X1.4998 Y1.5478 I-0.7177 J0.7206
G3 X1.583 Y1.4543 I0.8002 J0.6277
G1 Y1.417
G1 X1.417
G1 Y1.4545
G1 F10.0 X1.3789 Y1.4928
G3 F20.0 X1.4979 Y1.637 I-0.6796 J0.6823
G1 X1.5016
G3 X1.637 Y1.4771 I0.7984 J0.5385
G1 Y1.363
G1 X1.363
G1 Y1.4773
G3 X1.3789 Y1.4928 I-0.6637 J0.6978
G1 F10.0 X1.3408 Y1.531
G3 F20.0 X1.4687 Y1.691 I-0.6415 J0.644
G1 X1.5309
G3 X1.691 Y1.5007 I0.7691 J0.4845
G1 Y1.3187
G3 X1.6811 Y1.309 I0.7758 J-0.7995
G1 X1.3345
G3 X1.309 Y1.334 I-0.793 J-0.7808
G1 Y1.5009
G3 X1.3408 Y1.531 I-0.6097 J0.6742
G1 F10.0 X1.3027 Y1.5693
G3 F20.0 X1.4383 Y1.745 I-0.6034 J0.6058
G1 X1.5613
G3 X1.745 Y1.5251 I0.7387 J0.4305
G1 Y1.2955
G3 X1.7037 Y1.255 I0.7218 J-0.7763
G1 X1.3115
G3 X1.255 Y1.3106 I-0.77 J-0.7268
G1 Y1.5253
G3 X1.3027 Y1.5693 I-0.5557 J0.6498
G1 F10.0 X1.2646 Y1.6076
G3 F20.0 X1.4065 Y1.799 I-0.5653 J0.5675
G1 X1.593
G3 X1.799 Y1.5505 I0.707 J0.3765
G1 Y1.2716
G3 X1.727 Y1.201 I0.6678 J-0.7524
G1 X1.2879
G3 X1.201 Y1.2864 I-0.7464 J-0.6728
G1 Y1.5507
G3 X1.2646 Y1.6076 I-0.5017 J0.6244
G1 F10.0 X1.2265 Y1.6458
G3 F20.0 X1.3733 Y1.853 I-0.5272 J0.5293
G1 X1.6262
G3 X1.853 Y1.577 I0.6738 J0.3225
G1 Y1.2469
G3 X1.7511 Y1.147 I0.6138 J-0.7277
G1 X1.2634
G3 X1.147 Y1.2613 I-0.722 J-0.6188
G1 Y1.5771
G3 X1.2265 Y1.6458 I-0.4477 J0.598
G1 F10.0 X1.1884 Y1.6841
G3 F20.0 X1.3384 Y1.907 I-0.489 J0.491
G1 X1.6611
G3 X1.907 Y1.6047 I0.6389 J0.2685
G1 Y1.2214
G3 X1.776 Y1.093 I0.5598 J-0.7022
G1 X1.2382
G3 X1.093 Y1.2354 I-0.6967 J-0.5648
G1 Y1.6048
G3 X1.1884 Y1.6841 I-0.3937 J0.5703
G1 F10.0 X1.1502 Y1.7223
G3 F20.0 X1.3014 Y1.961 I-0.4509 J0.4527
G1 X1.6981
G3 X1.961 Y1.6338 I0.6019 J0.2145
G1 Y1.1949
G3 X1.8018 Y1.039 I0.5058 J-0.6757
G1 X1.2119
G3 X1.039 Y1.2086 I-0.6705 J-0.5108
G1 Y1.6339
G3 X1.1502 Y1.7223 I-0.3397 J0.5412
G1 F10.0 X1.1121 Y1.7606
G3 F20.0 X1.262 Y2.015 I-0.4128 J0.4145
G1 X1.7374
G3 X2.015 Y1.6646 I0.5626 J0.1605
G1 Y1.1673
G3 X1.8287 Y0.985 I0.4518 J-0.6481
G1 X1.1846
G3 X0.985 Y1.1806 I-0.6432 J-0.4568
G1 Y1.6646
G3 X1.1121 Y1.7606 I-0.2857 J0.5105
G1 F10.0 X1.074 Y1.7989
G3 F20.0 X1.2196 Y2.069 I-0.3747 J0.3762
G1 X1.7798
G3 X2.069 Y1.6974 I0.5202 J0.1065
G1 Y1.1385
G3 X1.8568 Y0.931 I0.3978 J-0.6192
G1 X1.1561
G3 X0.931 Y1.1513 I-0.6146 J-0.4028
G1 Y1.6973
G3 X1.074 Y1.7989 I-0.2317 J0.4778
G1 F10.0 X1.0359 Y1.8371
G3 F20.0 X1.1735 Y2.123 I-0.3366 J0.338
G1 X1.8259
G3 X2.123 Y1.7326 I0.4741 J0.0525
G1 Y1.1082
G3 X1.8862 Y0.877 I0.3438 J-0.589
G1 X1.1262
G3 X0.877 Y1.1207 I-0.5847 J-0.3488
G1 Y1.7324
G3 X1.0359 Y1.8371 I-0.1777 J0.4427
G1 F10.0 X0.9978 Y1.8754
G3 F20.0 X1.1223 Y2.1744 I-0.2985 J0.2997
G1 Y2.177
G1 X1.877
G1 Y2.1755
G3 X2.177 Y1.7708 I0.423 J0.0
G1 Y1.0764
G3 X1.9171 Y0.823 I0.2898 J-0.5571
G1 X1.0947
G3 X0.823 Y1.0883 I-0.5532 J-0.2948
G1 Y1.7706
G3 X0.9978 Y1.8754 I-0.1237 J0.4045
G1 F10.0 X0.9597 Y1.9136
G3 F20.0 X1.0683 Y2.1745 I-0.2604 J0.2614
G1 X1.0684 Y2.231
G1 X1.931
G1 Y2.1755
G3 X2.231 Y1.813 I0.369 J0.0
G1 Y1.0426
G3 X1.95 Y0.769 I0.2358 J-0.5233
G1 X1.0613
G3 X0.769 Y1.054 I-0.5198 J-0.2408
G1 Y1.8127
G3 X0.9597 Y1.9136 I-0.0697 J0.3624
G1 F10.0 X0.9216 Y1.9519
G3 F20.0 X1.0143 Y2.1746 I-0.2223 J0.2232
G1 X1.0145 Y2.285
G1 X1.985
G1 Y2.1755
G3 X2.285 Y1.8609 I0.315 J0.0
G1 Y1.0064
G3 X1.985 Y0.715 I0.1818 J-0.4872
G1 X1.0256
G3 X0.715 Y1.0172 I-0.4841 J-0.1868
G1 Y1.8605
G3 X0.9216 Y1.9519 I-0.0157 J0.3146
G1 F10.0 X0.8835 Y1.9902
G3 F20.0 X0.9603 Y2.1747 I-0.1842 J0.1849
G1 X0.9606 Y2.339
G1 X2.039
G1 Y2.1755
G3 X2.2996 Y1.9145 I0.261 J0.0
G1 X2.339 Y1.9144
G1 Y0.9673
G3 X2.0229 Y0.661 I0.1278 J-0.4481
G1 X0.987
G3 X0.661 Y0.9774 I-0.4455 J-0.1328
G1 Y1.9141
G1 X0.6994
G3 X0.8835 Y1.9902 I-0.0001 J0.261
G1 F10.0 X0.8454 Y2.0284
G3 F20.0 X0.9063 Y2.1748 I-0.1461 J0.1467
G1 X0.9067 Y2.393
G1 X2.093
G1 Y2.1755
G3 X2.2997 Y1.9685 I0.207 J0.0
G1 X2.393 Y1.9683
G1 Y0.9245
G3 X2.0642 Y0.607 I0.0738 J-0.4053
G1 X0.9447
G3 X0.607 Y0.9338 I-0.4032 J-0.0788
G1 Y1.9681
G1 X0.6994
G3 X0.8454 Y2.0284 I-0.0001 J0.207
G1 F10.0 X0.8073 Y2.0667
G3 F20.0 X0.8523 Y2.1748 I-0.108 J0.1084
G1 X0.8528 Y2.447
G1 X2.147
G1 Y2.1755
G3 X2.2997 Y2.0225 I0.153 J0.0
G1 X2.447 Y2.0223
G1 Y0.8767
G3 X2.1104 Y0.553 I0.0198 J-0.3574
G1 X0.8975
G3 X0.553 Y0.8849 I-0.356 J-0.0248
G1 Y2.022
G1 X0.6994 Y2.0221
G3 X0.8073 Y2.0667 I0.0 J0.153
G1 F10.0 X0.7692 Y2.1049
G3 F20.0 X0.7983 Y2.1749 I-0.0699 J0.0701
G1 X0.7988 Y2.501
G1 X2.201
G1 Y2.1755
G3 X2.2998 Y2.0765 I0.099 J0.0
G1 X2.501 Y2.0762
G1 Y0.8213
G3 X2.1634 Y0.499 I-0.0342 J-0.3021
G1 X0.8429
G3 X0.499 Y0.8281 I-0.3015 J0.0292
G1 Y2.076
G1 X0.6993 Y2.0761
G3 X0.7692 Y2.1049 I0.0 J0.099
G1 F10.0 X0.7311 Y2.1432
G3 F20.0 X0.7443 Y2.175 I-0.0318 J0.0319
G1 X0.7449 Y2.555
G1 X2.255
G1 Y2.1755
G3 X2.2999 Y2.1305 I0.045 J0.0
G1 X2.555 Y2.1301
G1 Y0.7531
G3 X2.228 Y0.445 I-0.0882 J-0.2339
G1 X0.776
G3 X0.445 Y0.7576 I-0.2346 J0.0832
G1 Y2.13
G1 X0.6993 Y2.1301
G3 X0.7311 Y2.1432 I0.0 J0.045
G0 Z0.5
G0 X1.417 Y1.4545
G1 F10.0 Z-0.37
G3 F20.0 X1.4998 Y1.5478 I-0.7177 J0.7206
G3 X1.583 Y1.4543 I0.8002 J0.6277
G1 Y1.417
G1 X1.417
G1 Y1.4545
G1 F10.0 X1.3789 Y1.4928
G3 F20.0 X1.4979 Y1.637 I-0.6796 J0.6823
G1 X1.5016
G3 X1.637 Y1.4771 I0.7984 J0.5385
G1 Y1.363
G1 X1.363
G1 Y1.4773
G3 X1.3789 Y1.4928 I-0.6637 J0.6978
G1 F10.0 X1.3408 Y1.531
G3 F20.0 X1.4687 Y1.691 I-0.6415 J0.644
G1 X1.5309
G3 X1.691 Y1.5007 I0.7691 J0.4845
G1 Y1.3187
G3 X1.6811 Y1.309 I0.7758 J-0.7995
G1 X1.3345
G3 X1.309 Y1.334 I-0.793 J-0.7808
G1 Y1.5009
G3 X1.3408 Y1.531 I-0.6097 J0.6742
G1 F10.0 X1.3027 Y1.5693
G3 F20.0 X1.4383 Y1.745 I-0.6034 J0.6058
G1 X1.5613
G3 X1.745 Y1.5251 I0.7387 J0.4305
G1 Y1.2955
G3 X1.7037 Y1.255 I0.7218 J-0.7763
G1 X1.3115
G3 X1.255 Y1.3106 I-0.77 J-0.7268
G1 Y1.5253
G3 X1.3027 Y1.5693 I-0.5557 J0.6498
G1 F10.0 X1.2646 Y1.6076
G3 F20.0 X1.4065 Y1.799 I-0.5653 J0.5675
G1 X1.593
G3 X1.799 Y1.5505 I0.707 J0.3765
G1 Y1.2716
G3 X1.727 Y1.201 I0.6678 J-0.7524
G1 X1.2879
G3 X1.201 Y1.2864 I-0.7464 J-0.6728
G1 Y1.5507
G3 X1.2646 Y1.6076 I-0.5017 J0.6244
G1 F10.0 X1.2265 Y1.6458
G3 F20.0 X1.3733 Y1.853 I-0.5272 J0.5293
G1 X1.6262
G3 X1.853 Y1.577 I0.6738 J0.3225
G1 Y1.2469
G3 X1.7511 Y1.147 I0.6138 J-0.7277
G1 X1.2634
G3 X1.147 Y1.2613 I-0.722 J-0.6188
G1 Y1.5771
G3 X1.2265 Y1.6458 I-0.4477 J0.598
G1 F10.0 X1.1884 Y1.6841
G3 F20.0 X1.3384 Y1.907 I-0.489 J0.491
G1 X1.6611
G3 X1.907 Y1.6047 I0.6389 J0.2685
G1 Y1.2214
G3 X1.776 Y1.093 I0.5598 J-0.7022
G1 X1.2382
G3 X1.093 Y1.2354 I-0.6967 J-0.5648
G1 Y1.6048
G3 X1.1884 Y1.6841 I-0.3937 J0.5703
G1 F10.0 X1.1502 Y1.7223
G3 F20.0 X1.3014 Y1.961 I-0.4509 J0.4527
G1 X1.6981
G3 X1.961 Y1.6338 I0.6019 J0.2145
G1 Y1.1949
G3 X1.8018 Y1.039 I0.5058 J-0.6757
G1 X1.2119
G3 X1.039 Y1.2086 I-0.6705 J-0.5108
G1 Y1.6339
G3 X1.1502 Y1.7223 I-0.3397 J0.5412
G1 F10.0 X1.1121 Y1.7606
G3 F20.0 X1.262 Y2.015 I-0.4128 J0.4145
G1 X1.7374
G3 X2.015 Y1.6646 I0.5626 J0.1605
G1 Y1.1673
G3 X1.8287 Y0.985 I0.4518 J-0.6481
G1 X1.1846
G3 X0.985 Y1.1806 I-0.6432 J-0.4568
G1 Y1.6646
G3 X1.1121 Y1.7606 I-0.2857 J0.5105
G1 F10.0 X1.074 Y1.7989
G3 F20.0 X1.2196 Y2.069 I-0.3747 J0.3762
G1 X1.7798
G3 X2.069 Y1.6974 I0.5202 J0.1065
G1 Y1.1385
G3 X1.8568 Y0.931 I0.3978 J-0.6192
G1 X1.1561
G3 X0.931 Y1.1513 I-0.6146 J-0.4028
G1 Y1.6973
G3 X1.074 Y1.7989 I-0.2317 J0.4778
G1 F10.0 X1.0359 Y1.8371
G3 F20.0 X1.1735 Y2.123 I-0.3366 J0.338
G1 X1.8259
G3 X2.123 Y1.7326 I0.4741 J0.0525
G1 Y1.1082
G3 X1.8862 Y0.877 I0.3438 J-0.589
G1 X1.1262
G3 X0.877 Y1.1207 I-0.5847 J-0.3488
G1 Y1.7324
G3 X1.0359 Y1.8371 I-0.1777 J0.4427
G1 F10.0 X0.9978 Y1.8754
G3 F20.0 X1.1223 Y2.1744 I-0.2985 J0.2997
G1 Y2.177
G1 X1.877
G1 Y2.1755
G3 X2.177 Y1.7708 I0.423 J0.0
G1 Y1.0764
G3 X1.9171 Y0.823 I0.2898 J-0.5571
G1 X1.0947
G3 X0.823 Y1.0883 I-0.5532 J-0.2948
G1 Y1.7706
G3 X0.9978 Y1.8754 I-0.1237 J0.4045
G1 F10.0 X0.9597 Y1.9136
G3 F20.0 X1.0683 Y2.1745 I-0.2604 J0.2614
G1 X1.0684 Y2.231
G1 X1.931
G1 Y2.1755
G3 X2.231 Y1.813 I0.369 J0.0
G1 Y1.0426
G3 X1.95 Y0.769 I0.2358 J-0.5233
G1 X1.0613
G3 X0.769 Y1.054 I-0.5198 J-0.2408
G1 Y1.8127
G3 X0.9597 Y1.9136 I-0.0697 J0.3624
G1 F10.0 X0.9216 Y1.9519
G3 F20.0 X1.0143 Y2.1746 I-0.2223 J0.2232
G1 X1.0145 Y2.285
G1 X1.985
G1 Y2.1755
G3 X2.285 Y1.8609 I0.315 J0.0
G1 Y1.0064
G3 X1.985 Y0.715 I0.1818 J-0.4872
G1 X1.0256
G3 X0.715 Y1.0172 I-0.4841 J-0.1868
G1 Y1.8605
G3 X0.9216 Y1.9519 I-0.0157 J0.3146
G1 F10.0 X0.8835 Y1.9902
G3 F20.0 X0.9603 Y2.1747 I-0.1842 J0.1849
G1 X0.9606 Y2.339
G1 X2.039
G1 Y2.1755
G3 X2.2996 Y1.9145 I0.261 J0.0
G1 X2.339 Y1.9144
G1 Y0.9673
G3 X2.0229 Y0.661 I0.1278 J-0.4481
G1 X0.987
G3 X0.661 Y0.9774 I-0.4455 J-0.1328
G1 Y1.9141
G1 X0.6994
G3 X0.8835 Y1.9902 I-0.0001 J0.261
G1 F10.0 X0.8454 Y2.0284
G3 F20.0 X0.9063 Y2.1748 I-0.1461 J0.1467
G1 X0.9067 Y2.393
G1 X2.093
G1 Y2.1755
G3 X2.2997 Y1.9685 I0.207 J0.0
G1 X2.393 Y1.9683
G1 Y0.9245
G3 X2.0642 Y0.607 I0.0738 J-0.4053
G1 X0.9447
G3 X0.607 Y0.9338 I-0.4032 J-0.0788
G1 Y1.9681
G1 X0.6994
G3 X0.8454 Y2.0284 I-0.0001 J0.207
G1 F10.0 X0.8073 Y2.0667
G3 F20.0 X0.8523 Y2.1748 I-0.108 J0.1084
G1 X0.8528 Y2.447
G1 X2.147
G1 Y2.1755
G3 X2.2997 Y2.0225 I0.153 J0.0
G1 X2.447 Y2.0223
G1 Y0.8767
G3 X2.1104 Y0.553 I0.0198 J-0.3574
G1 X0.8975
G3 X0.553 Y0.8849 I-0.356 J-0.0248
G1 Y2.022
G1 X0.6994 Y2.0221
G3 X0.8073 Y2.0667 I0.0 J0.153
G1 F10.0 X0.7692 Y2.1049
G3 F20.0 X0.7983 Y2.1749 I-0.0699 J0.0701
G1 X0.7988 Y2.501
G1 X2.201
G1 Y2.1755
G3 X2.2998 Y2.0765 I0.099 J0.0
G1 X2.501 Y2.0762
G1 Y0.8213
G3 X2.1634 Y0.499 I-0.0342 J-0.3021
G1 X0.8429
G3 X0.499 Y0.8281 I-0.3015 J0.0292
G1 Y2.076
G1 X0.6993 Y2.0761
G3 X0.7692 Y2.1049 I0.0 J0.099
G1 F10.0 X0.7311 Y2.1432
G3 F20.0 X0.7443 Y2.175 I-0.0318 J0.0319
G1 X0.7449 Y2.555
G1 X2.255
G1 Y2.1755
G3 X2.2999 Y2.1305 I0.045 J0.0
G1 X2.555 Y2.1301
G1 Y0.7531
G3 X2.228 Y0.445 I-0.0882 J-0.2339
G1 X0.776
G3 X0.445 Y0.7576 I-0.2346 J0.0832
G1 Y2.13
G1 X0.6993 Y2.1301
G3 X0.7311 Y2.1432 I0.0 J0.045
( Pocket3 )
S1000
G0 Z0.5
G0 X1.123 Y1.623
G1 F10.0 Z-0.495
G1 F20.0 Y1.727
G1 X1.877
G1 Y1.623
G1 X1.123
G1 F10.0 Y1.569
G1 F20.0 X1.069
G1 Y1.781
G1 X1.931
G1 Y1.569
G1 X1.123
G1 F10.0 Y1.515
G1 F20.0 X1.015
G1 Y1.835
G1 X1.985
G1 Y1.515
G1 X1.123
G1 F10.0 Y1.461
G1 F20.0 X0.961
G1 Y1.889
G1 X2.039
G1 Y1.461
G1 X1.123
G1 F10.0 Y1.407
G1 F20.0 X0.907
G1 Y1.943
G1 X2.093
G1 Y1.407
G1 X1.123
G1 F10.0 Y1.353
G1 F20.0 X0.853
G1 Y1.997
G1 X2.147
G1 Y1.353
G1 X1.123
G1 F10.0 Y1.299
G1 F20.0 X0.799
G1 Y2.051
G1 X2.201
G1 Y1.299
G1 X1.123
G1 F10.0 Y1.245
G1 F20.0 X0.745
G1 Y2.105
G1 X2.255
G1 Y1.245
G1 X1.123
G0 Z0.5
G0 Y1.623
G1 F10.0 Z-0.62
G1 F20.0 Y1.727
G1 X1.877
G1 Y1.623
G1 X1.123
G1 F10.0 Y1.569
G1 F20.0 X1.069
G1 Y1.781
G1 X1.931
G1 Y1.569
G1 X1.123
G1 F10.0 Y1.515
G1 F20.0 X1.015
G1 Y1.835
G1 X1.985
G1 Y1.515
G1 X1.123
G1 F10.0 Y1.461
G1 F20.0 X0.961
G1 Y1.889
G1 X2.039
G1 Y1.461
G1 X1.123
G1 F10.0 Y1.407
G1 F20.0 X0.907
G1 Y1.943
G1 X2.093
G1 Y1.407
G1 X1.123
G1 F10.0 Y1.353
G1 F20.0 X0.853
G1 Y1.997
G1 X2.147
G1 Y1.353
G1 X1.123
G1 F10.0 Y1.299
G1 F20.0 X0.799
G1 Y2.051
G1 X2.201
G1 Y1.299
G1 X1.123
G1 F10.0 Y1.245
G1 F20.0 X0.745
G1 Y2.105
G1 X2.255
G1 Y1.245
G1 X1.123
G0 Z0.5
G0 Y1.623
G1 F10.0 Z-0.69
G1 F20.0 Y1.727
G1 X1.877
G1 Y1.623
G1 X1.123
G1 F10.0 Y1.569
G1 F20.0 X1.069
G1 Y1.781
G1 X1.931
G1 Y1.569
G1 X1.123
G1 F10.0 Y1.515
G1 F20.0 X1.015
G1 Y1.835
G1 X1.985
G1 Y1.515
G1 X1.123
G1 F10.0 Y1.461
G1 F20.0 X0.961
G1 Y1.889
G1 X2.039
G1 Y1.461
G1 X1.123
G1 F10.0 Y1.407
G1 F20.0 X0.907
G1 Y1.943
G1 X2.093
G1 Y1.407
G1 X1.123
G1 F10.0 Y1.353
G1 F20.0 X0.853
G1 Y1.997
G1 X2.147
G1 Y1.353
G1 X1.123
G1 F10.0 Y1.299
G1 F20.0 X0.799
G1 Y2.051
G1 X2.201
G1 Y1.299
G1 X1.123
G1 F10.0 Y1.245
G1 F20.0 X0.745
G1 Y2.105
G1 X2.255
G1 Y1.245
G1 X1.123
( Pocket4 )
S1000
G0 Z0.5
G0 X1.1704 Y1.6962
G1 F10.0 Z-0.75
G1 F20.0 X1.8296
G1 Y1.667
G1 X1.1704
G1 Y1.6962
G1 F10.0 Y1.7502
G1 F20.0 X1.8836
G1 Y1.613
G1 X1.1164
G1 Y1.7502
G1 X1.1704
G1 F10.0 Y1.8042
G1 F20.0 X1.9376
G1 Y1.559
G1 X1.0624
G1 Y1.8042
G1 X1.1704
G1 F10.0 Y1.8582
G1 F20.0 X1.9916
G1 Y1.505
G1 X1.0084
G1 Y1.8582
G1 X1.1704
G1 F10.0 Y1.9122
G1 F20.0 X2.0456
G1 Y1.451
G1 X0.9544
G1 Y1.9122
G1 X1.1704
( Pocket5 )
S1000
G0 Z0.5
G0 X1.0675 Y0.9139
G1 F10.0 Z-0.47
G1 F20.0 X1.9325
G1 X1.9329 Y0.8811
G1 X1.9256 Y0.8775
G1 X1.0744
G1 X1.0671 Y0.8811
G1 X1.0675 Y0.9139
G1 F10.0 Y0.9679
G1 F20.0 X1.9859
G1 X1.9872 Y0.8479
G1 X1.9384 Y0.8235
G1 X1.0616
G1 X1.0128 Y0.8479
G1 X1.0141 Y0.9679
G1 X1.0675
G1 F10.0 Y1.0219
G1 F20.0 X2.0393
G1 X2.0416 Y0.8147
G1 X1.9511 Y0.7695
G1 X1.0489
G1 X0.9584 Y0.8147
G1 X0.9607 Y1.0219
G1 X1.0675
G1 F10.0 Y1.0759
G1 F20.0 X2.0928
G1 X2.096 Y0.7815
G1 X1.9639 Y0.7155
G1 X1.0361
G1 X0.904 Y0.7815
G1 X0.9072 Y1.0759
G1 X1.0675
G1 F10.0 Y1.1299
G1 F20.0 X2.1462
G1 X2.1503 Y0.7484
G1 X1.9766 Y0.6615
G1 X1.0234
G1 X0.8497 Y0.7484
G1 X0.8538 Y1.1299
G1 X1.0675
G1 F10.0 Y1.1839
G1 F20.0 X2.1996
G1 X2.2047 Y0.7152
G1 X1.9894 Y0.6075
G1 X1.0106
G1 X0.7953 Y0.7152
G1 X0.8004 Y1.1839
G1 X1.0675
( Pocket5b )
S1000
G0 Z0.5
G0 X1.0616 Y2.2334
G1 F10.0 Z-0.47
G1 F20.0 Y2.306
G1 X1.9384
G1 Y2.2334
G1 X1.0616
G1 F10.0 Y2.1794
G1 F20.0 X1.0076
G1 Y2.36
G1 X1.9924
G1 Y2.1794
G1 X1.0616
( Pocket6 )
S1000
G0 Z0.5
G0 X1.5424 Y0.9
G1 F10.0 Z-0.575
G2 X1.4847 Y0.8667 I-0.0385 J0.0
G2 Y0.9333 I0.0193 J0.0333
G2 X1.5424 Y0.9 I0.0193 J-0.0333
G1 X1.5964
G2 X1.4577 Y0.8199 I-0.0925 J0.0
G2 Y0.9801 I0.0463 J0.0801
G2 X1.5964 Y0.9 I0.0462 J-0.0801
G1 X1.5424
G1 Z-0.7
G2 X1.4847 Y0.8667 I-0.0385 J0.0
G2 Y0.9333 I0.0193 J0.0333
G2 X1.5424 Y0.9 I0.0193 J-0.0333
G1 X1.5964
G2 X1.4577 Y0.8199 I-0.0925 J0.0
G2 Y0.9801 I0.0463 J0.0801
G2 X1.5964 Y0.9 I0.0462 J-0.0801
G1 X1.5424
G1 Z-0.75
G2 X1.4847 Y0.8667 I-0.0385 J0.0
G2 Y0.9333 I0.0193 J0.0333
G2 X1.5424 Y0.9 I0.0193 J-0.0333
G1 X1.5964
G2 X1.4577 Y0.8199 I-0.0925 J0.0
G2 Y0.9801 I0.0463 J0.0801
G2 X1.5964 Y0.9 I0.0462 J-0.0801
( Pocket8 )
S1000
G0 Z0.5
G0 X0.9284 Y0.9135
G1 Z-0.575
G2 X0.8483 Y0.8672 I-0.0534 J0.0
G2 Y0.9597 I0.0267 J0.0463
G2 X0.9284 Y0.9135 I0.0267 J-0.0463
G1 Z-0.7
G2 X0.8483 Y0.8672 I-0.0534 J0.0
G2 Y0.9597 I0.0267 J0.0463
G2 X0.9284 Y0.9135 I0.0267 J-0.0463
G1 Z-0.75
G2 X0.8483 Y0.8672 I-0.0534 J0.0
G2 Y0.9597 I0.0267 J0.0463
G2 X0.9284 Y0.9135 I0.0267 J-0.0463
( Pocket7 )
S1000
G0 Z0.5
G0 X2.1784
G1 Z-0.575
G2 X2.0983 Y0.8672 I-0.0534 J0.0
G2 Y0.9597 I0.0267 J0.0463
G2 X2.1784 Y0.9135 I0.0267 J-0.0463
G1 Z-0.7
G2 X2.0983 Y0.8672 I-0.0534 J0.0
G2 Y0.9597 I0.0267 J0.0463
G2 X2.1784 Y0.9135 I0.0267 J-0.0463
G1 Z-0.75
G2 X2.0983 Y0.8672 I-0.0534 J0.0
G2 Y0.9597 I0.0267 J0.0463
G2 X2.1784 Y0.9135 I0.0267 J-0.0463
( Drill1 )
S1000
G0 Z0.3
G0 X0.5625 Y2.4375
G98
G83 X0.5625 Y2.4375 Z-0.45 Q0.1 R0.0 F15.0
G80
( Drill2 )
S1000
G0 Z0.3
G0 X2.4375
G98
G83 X2.4375 Y2.4375 Z-0.45 Q0.1 R0.0 F15.0
G80
( Drill3 )
S1000
G0 Z0.3
G0 Y0.5625
G98
G83 X2.4375 Y0.5625 Z-0.45 Q0.1 R0.0 F15.0
G80
( Drill4 )
S1000
G0 Z0.3
G0 X0.5625
G98
G83 X0.5625 Y0.5625 Z-0.45 Q0.1 R0.0 F15.0
G80
G0 Z0.3
M5
M30
